packages/kaspersky-hexa-ui-icons/src/iconsSVGs/16/RouterStatus.svg

<svg width="16" height="16" viewBox="0 0 16 16" fill="none" xmlns="http://www.w3.org/2000/svg">
<path d="M4.93955 5.57983C5.19339 5.32599 5.19339 4.91444 4.93955 4.6606C4.68571 4.40675 4.27415 4.40675 4.02031 4.6606L1.14058 7.54033C0.886735 7.79417 0.886735 8.20573 1.14058 8.45957L4.02031 11.3393C4.27415 11.5931 4.68571 11.5931 4.93955 11.3393C5.19339 11.0855 5.19339 10.6739 4.93955 10.4201L2.51943 7.99995L4.93955 5.57983Z" fill="black"/>
<path d="M11.0608 5.57983C10.8069 5.32599 10.8069 4.91444 11.0608 4.6606C11.3146 4.40675 11.7262 4.40675 11.98 4.6606L14.8597 7.54033C15.1136 7.79417 15.1136 8.20573 14.8597 8.45957L11.98 11.3393C11.7262 11.5931 11.3146 11.5931 11.0608 11.3393C10.8069 11.0855 10.8069 10.6739 11.0608 10.4201L13.4809 7.99995L11.0608 5.57983Z" fill="black"/>
<path d="M6.98527 7.99995C6.98527 8.52539 6.55932 8.95134 6.03388 8.95134C5.50844 8.95134 5.0825 8.52539 5.0825 7.99995C5.0825 7.47452 5.50844 7.04857 6.03388 7.04857C6.55932 7.04857 6.98527 7.47452 6.98527 7.99995Z" fill="black"/>
<path d="M9.96656 8.95134C10.492 8.95134 10.9179 8.52539 10.9179 7.99995C10.9179 7.47452 10.492 7.04857 9.96656 7.04857C9.44112 7.04857 9.01517 7.47452 9.01517 7.99995C9.01517 8.52539 9.44112 8.95134 9.96656 8.95134Z" fill="black"/>
</svg>

<svg xmlns="http://www.w3.org/2000/svg" width="16" height="16" fill="none" viewBox="0 0 16 16"><path fill="#000" fill-rule="evenodd" d="M4.9396 5.5798a.65.65 0 0 0-.9193-.9192L1.1406 7.5403a.65.65 0 0 0 0 .9193l2.8797 2.8797a.65.65 0 1 0 .9192-.9192L2.5196 8zm6.1212 0a.65.65 0 1 1 .9192-.9192l2.8797 2.8797a.65.65 0 0 1 0 .9193L11.98 11.3393a.65.65 0 0 1-.9192 0 .65.65 0 0 1 0-.9192L13.4809 8zM6.9853 8a.9514.9514 0 0 1-.9514.9513A.9514.9514 0 0 1 5.0825 8c0-.5255.426-.9514.9514-.9514s.9514.426.9514.9513m2.9813.9513A.9513.9513 0 0 0 10.9179 8a.9514.9514 0 1 0-1.9027 0c0 .5254.426.9513.9513.9513"/></svg>
